symbols/web/fit_screen/materialsymbolsrounded/fit_screen_40px.svg

<svg xmlns="http://www.w3.org/2000/svg" height="40" width="40"><path d="M33.875 14.708v-5.25h-5.25V6.667h5.25q1.125 0 1.958.833.834.833.834 1.958v5.25Zm-30.542 0v-5.25q0-1.125.834-1.958.833-.833 1.958-.833h5.25v2.791h-5.25v5.25Zm25.292 18.625v-2.791h5.25v-5.25h2.792v5.25q0 1.125-.834 1.958-.833.833-1.958.833Zm-22.5 0q-1.125 0-1.958-.833-.834-.833-.834-1.958v-5.25h2.792v5.25h5.25v2.791Zm22.208-5.541H11.667q-1.167 0-1.979-.813-.813-.812-.813-1.979V15q0-1.167.813-1.979.812-.813 1.979-.813h16.666q1.167 0 1.979.813.813.812.813 1.979v10q0 1.167-.813 1.979-.812.813-1.979.813ZM11.667 25h16.666V15H11.667v10Zm0 0V15v10Z"/></svg>

<svg xmlns="http://www.w3.org/2000/svg" height="40" width="40"><path d="M33.875 14.708V9.458Q33.875 9.458 33.875 9.458Q33.875 9.458 33.875 9.458H28.625V6.667H33.875Q35 6.667 35.833 7.5Q36.667 8.333 36.667 9.458V14.708ZM3.333 14.708V9.458Q3.333 8.333 4.167 7.5Q5 6.667 6.125 6.667H11.375V9.458H6.125Q6.125 9.458 6.125 9.458Q6.125 9.458 6.125 9.458V14.708ZM28.625 33.333V30.542H33.875Q33.875 30.542 33.875 30.542Q33.875 30.542 33.875 30.542V25.292H36.667V30.542Q36.667 31.667 35.833 32.5Q35 33.333 33.875 33.333ZM6.125 33.333Q5 33.333 4.167 32.5Q3.333 31.667 3.333 30.542V25.292H6.125V30.542Q6.125 30.542 6.125 30.542Q6.125 30.542 6.125 30.542H11.375V33.333ZM28.333 27.792H11.667Q10.5 27.792 9.688 26.979Q8.875 26.167 8.875 25V15Q8.875 13.833 9.688 13.021Q10.5 12.208 11.667 12.208H28.333Q29.5 12.208 30.312 13.021Q31.125 13.833 31.125 15V25Q31.125 26.167 30.312 26.979Q29.5 27.792 28.333 27.792ZM11.667 25H28.333Q28.333 25 28.333 25Q28.333 25 28.333 25V15Q28.333 15 28.333 15Q28.333 15 28.333 15H11.667Q11.667 15 11.667 15Q11.667 15 11.667 15V25Q11.667 25 11.667 25Q11.667 25 11.667 25ZM11.667 25Q11.667 25 11.667 25Q11.667 25 11.667 25V15Q11.667 15 11.667 15Q11.667 15 11.667 15Q11.667 15 11.667 15Q11.667 15 11.667 15V25Q11.667 25 11.667 25Q11.667 25 11.667 25Z"/></svg>
